findly-builder/apps/searchassist/src/assets/icons/bulb-insights.svg

<svg width="21" height="19" viewBox="0 0 21 19" fill="none" xmlns="http://www.w3.org/2000/svg">
<path d="M3.05618 1.78125L2.15293 2.60278L2.60456 3.00903L3.50285 3.82604L3.94951 4.23681L4.85276 3.41528L4.40114 3.00903L3.50285 2.19201L3.05618 1.78125ZM17.27 1.78125L16.8233 2.19201L15.4784 3.41528L16.3767 4.23681L16.8233 3.82604L18.1683 2.60278L17.27 1.78125ZM10.1631 2.71111C7.364 2.71111 5.08106 4.7875 5.08106 7.33333C5.08106 8.93125 5.85031 9.85208 6.47067 10.6375C7.096 11.4184 7.62207 12.0819 7.62207 13.6889V14.8444C7.62207 15.5938 8.16303 16.2347 8.90251 16.4694C8.89754 16.5056 8.89258 16.5417 8.89258 16.5778C8.89258 17.2142 9.46332 17.7333 10.1631 17.7333C10.8629 17.7333 11.4336 17.2142 11.4336 16.5778C11.4336 16.5417 11.4336 16.5056 11.4286 16.4694C12.1681 16.2302 12.7041 15.5938 12.7041 14.8444V13.6889C12.7041 12.0819 13.2302 11.4184 13.8555 10.6375C14.4759 9.85208 15.2451 8.93125 15.2451 7.33333C15.2451 4.7875 12.9622 2.71111 10.1631 2.71111ZM10.1631 3.86667C12.2773 3.86667 13.9746 5.41042 13.9746 7.33333C13.9746 8.62431 13.4734 9.14792 12.8232 9.95139C12.2624 10.6601 11.7066 11.6576 11.5527 13.1111H8.77347C8.61962 11.6576 8.06377 10.6601 7.50296 9.95139C6.85282 9.14792 6.35156 8.62431 6.35156 7.33333C6.35156 5.41042 8.04888 3.86667 10.1631 3.86667ZM1.26953 7.33333V8.48889H3.81055V7.33333H1.26953ZM16.5156 7.33333V8.48889H19.0566V7.33333H16.5156ZM3.94951 11.5854L3.50285 11.9962L2.60456 12.8132L2.15293 13.2194L3.05618 14.0365L4.40114 12.8132L4.85276 12.4069L3.94951 11.5854ZM16.3767 11.5854L15.4784 12.4069L17.27 14.0365L18.1683 13.2194L16.8233 11.9962L16.3767 11.5854ZM8.89258 14.2667H11.4336V14.8444C11.4336 15.1694 11.1557 15.4222 10.7983 15.4222H9.52783C9.1705 15.4222 8.89258 15.1694 8.89258 14.8444V14.2667Z" fill="#135423"/>
</svg>

<svg width="21" height="19" fill="none" xmlns="http://www.w3.org/2000/svg"><path d="m3.056 1.781-.903.822.452.406.898.817.447.41.903-.82-.452-.407-.898-.817-.447-.41Zm14.214 0-.447.411-1.345 1.223.899.822.446-.411 1.345-1.223-.898-.822Zm-7.107.93c-2.799 0-5.082 2.076-5.082 4.622 0 1.598.77 2.52 1.39 3.304.625.781 1.151 1.445 1.151 3.052v1.155c0 .75.541 1.39 1.28 1.625-.004.037-.01.073-.01.109 0 .636.571 1.155 1.271 1.155s1.27-.519 1.27-1.155c0-.036 0-.072-.004-.109.74-.239 1.275-.875 1.275-1.625V13.69c0-1.607.526-2.27 1.151-3.052.62-.785 1.39-1.706 1.39-3.304 0-2.546-2.283-4.622-5.082-4.622Zm0 1.156c2.114 0 3.812 1.543 3.812 3.466 0 1.291-.502 1.815-1.152 2.618-.56.71-1.116 1.707-1.27 3.16h-2.78c-.153-1.453-.71-2.45-1.27-3.16-.65-.803-1.151-1.327-1.151-2.618 0-1.923 1.697-3.466 3.811-3.466ZM1.27 7.333V8.49h2.54V7.333H1.27Zm15.246 0V8.49h2.54V7.333h-2.54ZM3.95 11.585l-.447.411-.898.817-.452.406.903.818 1.345-1.224.452-.406-.903-.822Zm12.427 0-.899.822 1.792 1.63.898-.818-1.345-1.223-.446-.41Zm-7.484 2.682h2.54v.577c0 .325-.277.578-.635.578h-1.27c-.357 0-.635-.253-.635-.578v-.577Z" fill="#135423"/></svg>
